X:1
T:James Gibb editions
T:Sempre mi ride - Willaert
T:#
%%score [ 1 2 3 4 ]
L:1/8
Q:1/4=140
M:4/4
K:C
V:1 treble nm="Midi_74" snm="S"
V:2 treble nm="Midi_74" snm="A"
V:3 treble-8 nm="Midi_74" snm="T"
V:4 bass nm="Midi_74" snm="B"
V:1
"^Adriaan Willaert\n(1490-1562)""^Sempre mi ride" z4 c4 | B2 c2 d2 d2 | d4 c4 | c2 c2 B2 B2 | %4
w: Sem-|pre mi ri- de|sta, sem-|pre mi ri- de|
 c4 A4 | A2 c2 B4 |[M:4/4] c4 c4 | B2 c2 c2 B2 | c4 z2 c2 | c2 c2 c2 d2 | B4 c2 A2 | %11
w: sta, don-|na dab- be-|ne quan-|do pas- seg- gio|per, quan-|do pas- seg- gio|per mez- zo|
 A2 (c3 B/A/ B2) | c4 c4 | B2 c2 d2 d2 | d4 c4 | c2 c2 B2 B2 | c4 A4 | A2 c2 B4 | c4 c4 | %19
w: sta vi\- * * *|a. Sem-|pre mi ri- de|sta, sem-|pre mi ri- de|sta, don-|na dab- be-|ne quan-|
 B2 c2 c2 B2 | c4 z2 c2 | c2 c2 c2 d2 | B4 c2 A2 | A2 (c3 B/A/ B2) | c4 z2 c2 | B2 (c2 B4) | %26
w: do pas- seg- gio|per, quan-|do pas- seg- gio|per mez- zo|sta vi\- * * *|a. la|ri- del\- *|
 c2 G4 c2 | B2 (c3 B/A/ B2) | c4 z2 G2 | c2 A2 B4 | c4 z2 G2 | c2 A2 B4 | c8 | z4 c4- | %34
w: la, la paz-|za- rel\- * * *|la non|vi- ca ri-|de, non|vi- ca ri-|de|ha|
 c2 c2 d2 B2- | B2 B2 c2 A2 | B2 B2 c4 | B2 c4 B2 | z2 c2 c4- | c2 d2 c4 | B2 B2 c2 A2 | %41
w: * ha ha ha|* ha ha ha|ha ri- de-|mo tut- ti,|ri- de\-|* mo tut-|ti per dar- li|
 A2 (c3 B/A/ B2) | c4 G4 | G2 c2 z2 c2- | c2 c2 d2 B2- | B2 B2 c2 A2 | B2 B2 c4 | B2 c4 B2 | %48
w: pia- ce\- * * *|re, ha|ha ha ha|* ha ha ha|* ha ha ha|ha ri- de-|mo tut- ti,|
 z2 c2 c4- | c2 d2 c4 | B2 B2 c2 A2 | A2 (c3 B/A/ B2) | c8 | c8 | c8 | c8 | c8 |] %57
w: ri- de\-|* mo tut-|ti per dar- li|pia- ce\- * * *|re.|||||
V:2
 z4 G4 | G2 E2 G2 ^F2 | G4 E4 | A2 G2 G2 G2 | G4 z2 C2 | D2 G2 G4 |[M:4/4] E4 G4 | G2 E2 G2 G2 | %8
w: Sem-|pre mi ri- de|sta, sem-|pre mi ri- de|sta, don-|na dab- be-|ne quan-|do pas- seg- gio|
 E4 E4 | E2 E2 F2 F2 | D4 C4 | C2 G2 G4 | E4 G4 | G2 E2 G2 ^F2 | G4 E4 | A2 G2 G2 G2 | G4 z2 C2 | %17
w: per, quan-|do pas- seg- gio|per mez-|zo sta vi-|a. Sem-|pre mi ri- de|sta, sem-|pre mi ri- de|sta, don-|
 D2 G2 G4 | E4 G4 | G2 E2 G2 G2 | E4 E4 | E2 E2 F2 F2 | D4 C4 | C2 G2 G4 | E4 z2 G2 | G2 (E2 G4) | %26
w: na dab- be-|ne quan-|do pas- seg- gio|per, quan-|do pas- seg- gio|per mez-|zo sta vi-|a. la|ri- del\- *|
 E2 E4 G2- | G2 E2 G4 | G2 E2 E2 E2 | A4 G4- | G2 G2 E2 E2 | A4 G4 | z2 G4 G2 | E6 G2 | A4 A2 G2- | %35
w: la, la paz\-|* za- rel-|la non vi- ca|ri- de,|* non vi- ca|ri- de|ha ha|ha ha|ha ha ha|
 G2 G2 E4 | G4 z2 G2 | G2 E2 G4 | E6 G2 | A2 A2 A4 | D2 E2 C2 C2- | C2 G2 G4 | E2 E4 E2 | E6 G2 | %44
w: * ri- de-|mo, ri-|de- mo tut-|ti, ri-|de- mo tut-|ti per dar- li|* pia- ce-|re, ha ha|ha ha|
 A4 A2 G2- | G2 G2 E4 | G4 z2 G2 | G2 E2 G4 | E6 G2 | A2 A2 A4 | D2 E2 C2 C2- | C2 G2 G4 | E6 G2 | %53
w: ha ha ha|* ri- de-|mo, ri-|de- mo tut-|ti, ri-|de- mo tut-|ti per dar- li|* pia- ce-|re, ri-|
 A2 A2 A4 | D2 E2 C2 C2- | C2 G2 G4 | G8 |] %57
w: de- mo tut-|ti, per dar- li|* pia- ce-|re.|
V:3
 z4 e4 | d2 c2 B2 A2 | B4 g4 | f2 e2 d2 d2 | e4 c2 f2- | f2 e2 d4 |[M:4/4][K:treble-8] c4 e4 | %7
w: Sem-|pre mi ri- de|sta, sem-|pre mi ri- de|sta, don- na|* dab- be-|ne quan-|
 d2 c2 d2 d2 | c4 g4 | g2 g2 a2 a2 | g4 e2 f2- | f2 e2 d4 | c4 e4 | d2 c2 B2 A2 | B4 g4 | %15
w: do pas- seg- gio|per, quan-|do pas- seg- gio|per mez- zo|* sta vi-|a. Sem-|pre mi ri- de|sta, sem-|
 f2 e2 d2 d2 | e4 c2 f2- | f2 e2 d4 | c4 e4 | d2 c2 d2 d2 | c4 g4 | g2 g2 a2 a2 | g4 e2 f2- | %23
w: pre mi ri- de|sta, don- na|* dab- be-|ne quan-|do pas- seg- gio|per, quan-|do pas- seg- gio|per mez- zo|
 f2 e2 d4 | c4 z2 e2 | d2 (c2 d4) | c4 z2 e2 | d2 c2 d4 | c4 g2 e2- | e2 f2 d4 | e4 g2 e2- | %31
w: * sta vi-|a. la|ri- del\- *|la, la|paz- za- rel-|la non vi\-|* ca ri-|de, non vi\-|
 e2 f2 d4 | e4 z4 | g6 e2 | f6 d2 | e6 c2 | d4 c2 e2 | d2 c2 d4 | c2 g2 g2 e2 | f4 e4 | g4 e2 f2- | %41
w: * ca ri-|de|ha ha|ha ha|ha ha|ha ha ri-|de- mo tut-|ti, ri- de- mo|tut- ti,|per dar- li|
 f2 e2 d4 | c4 z4 | g6 e2 | f6 d2 | e6 c2 | d4 c2 e2 | d2 c2 d4 | c2 g2 g2 e2 | f4 e4 | g4 e2 f2- | %51
w: * pia- ce-|re,|ha ha|ha ha|ha ha|ha ha ri-|de- mo tut-|ti, ri- de- mo|tut- ti,|per dar- li|
 f2 e2 d4 | c2 g2 g2 e2 | f4 e4 | g4 e2 f2- | f2 e2 d4 | c8 |] %57
w: * pia- ce-|re, ri- de- mo|tut- ti,|per dar- li|* pia- ce-|re.|
V:4
 z4 C,4 | G,2 A,2 G,2 D,2 | G,4 C,4 | F,2 C,2 G,2 G,2 | C,4 F,4 | D,2 C,2 G,4 |[M:4/4] C,4 C,4 | %7
w: Sem-|pre mi ri- de|sta, sem-|pre mi ri- de|sta, don-|na dab- be-|ne, quan-|
 G,2 A,2 G,2 G,2 | C,4 C,4 | C,2 C,2 F,2 D,2 | G,4 A,2 F,2- | F,2 C,2 G,4 | C,4 C,4 | %13
w: do pas- seg- gio|per, quan-|do pas- seg- gio|per mez- zo|* sta vi-|a. Sem-|
 G,2 A,2 G,2 D,2 | G,4 C,4 | F,2 C,2 G,2 G,2 | C,4 F,4 | D,2 C,2 G,4 | C,4 C,4 | G,2 A,2 G,2 G,2 | %20
w: pre mi ri- de|sta, sem-|pre mi ri- de|sta, don-|na dab- be-|ne, quan-|do pas- seg- gio|
 C,4 C,4 | C,2 C,2 F,2 D,2 | G,4 A,2 F,2- | F,2 C,2 G,4 | C,4 z2 C,2 | G,2 (A,2 G,4) | C,4 z2 C,2 | %27
w: per, quan-|do pas- seg- gio|per mez- zo|* sta vi-|a. La|ri- del\- *|la, la|
 G,2 A,2 G,4 | C,6 C2 | A,2 D,2 G,4 | C,6 C2 | A,2 D,2 G,4 | C,8 | z2 C,4 C,2 | F,4 D,2 G,2- | %35
w: paz- za- rel-|la non|vi- ca ri-|de, non|vi- ca ri-|de|ha ha|ha ha ha|
 G,2 E,2 A,2 A,2 | G,4 z2 C,2 | G,2 A,2 G,4 | C,6 C,2 | F,2 D,2 A,4 | G,2 E,2 A,2 F,2- | %41
w: * ha ha ha|ha ri-|de- mo tut-|ti, ri-|de- mo tut-|ti, per dar- li|
 F,2 C,2 G,4 | C,8 | z2 C,4 C,2 | F,4 D,2 G,2- | G,2 E,2 A,2 A,2 | G,4 z2 C,2 | G,2 A,2 G,4 | %48
w: * pia- ce-|re,|ha ha|ha ha ha|* ha ha ha|ha ri-|de- mo tut-|
 C,6 C,2 | F,2 D,2 A,4 | G,2 E,2 A,2 F,2- | F,2 C,2 G,4 | C,4 C,4 | F,2 D,2 A,4 | %54
w: ti, ri-|de- mo tut-|ti, per dar- li|* pia- ce-|re, ri-|de- mo tut-|
 G,2 E,2 A,2 F,2- | F,2 C,2 G,4 | C,8 |] %57
w: ti per dar- li|* pia- ce-|re.|

